X: 2427
T: SULLIVANS JIG
%R: hornpipe
B: James Kerr "Merry Melodies" v.2 p.48 #427
Z: 2016 John Chambers <jc:trillian.mit.edu>
M: C
L: 1/8
K: G
(uba) |\
(vge) zf e4- | e>ba>g a2(ba) |\
(ge) zf e4- | e>ba>g a2(ba) |\
(vge) zf e4- | e>ba>g a2(b>c') |\
d'>c'b>a b>ag>e | d2[f2A2] [g2B2] :|
|: (3(DEF) |\
G2 (3(BAG) d>BG>B | A2 (3(cBA) e>cA>G |\
F>GA>B c>de>f | (3(gfg) (3(age) d2 B>A |\
G2 (3(BAG) d>BG>B | A2 (3(cBA) e>cA>G |\
F>GA>B c>de>f | (3(gfg) a>f g2 :|
